library/images/5e7e6b89b39e21cf4285dc9c_shopping-bag.svg

<svg height="73" viewBox="0 0 50 73" width="50" xmlns="http://www.w3.org/2000/svg"><g fill="#458bc9"><path d="m35.9049171 41.0702802h-5.2003109v-5.2010523c0-.6582177-.5336126-1.1918085-1.1918571-1.1918085h-8.2190466c-.6582445 0-1.1918571.5335908-1.1918571 1.1918085v5.2010523h-5.2003109c-.6582445 0-1.1918571.5335909-1.1918571 1.1918085v8.2177581c0 .6582176.5336126 1.1918085 1.1918571 1.1918085h5.2003109v5.2010523c0 .6582177.5336126 1.1918085 1.1918571 1.1918085h8.2190466c.6582445 0 1.1918571-.5335908 1.1918571-1.1918085v-5.2010523h5.2003109c.6582445 0 1.1918571-.5335909 1.1918571-1.1918085v-8.2177581c0-.6582176-.5336126-1.1918085-1.1918571-1.1918085zm-1.1918571 8.2177581h-5.2003109c-.6582445 0-1.1918571.5335908-1.1918571 1.1918085v5.2010523h-5.8353324v-5.2010523c0-.6582177-.5336126-1.1918085-1.1918571-1.1918085h-5.2003109v-5.8341411h5.2003109c.6582445 0 1.1918571-.5335908 1.1918571-1.1918085v-5.2010523h5.8353324v5.2010523c0 .6582177.5336126 1.1918085 1.1918571 1.1918085h5.2003109z"/><path d="m47.3658713 18.4473609c-.0930165-1.7734337-1.5461942-3.1633204-3.3074414-3.1633907h-8.3660489v-4.4996836c0-5.95599704-4.788419-10.7842866-10.6952331-10.7842866s-10.695233 4.82828956-10.695233 10.7842866v4.4968078h-8.36604892c-1.76143852-.0004135-3.21489386 1.3897388-3.3074414 3.1633907l-2.62389717 50.6219205c-.04746447.9149199.2799035 1.8093277.90544978 2.4737953.62554628.6644677 1.494337 1.0404443 2.40294231 1.0404443h43.374161c.9086053 0 1.777396-.3759766 2.4029423-1.0404443.6255463-.6644676.9529143-1.5588754.9054498-2.4737953zm-30.6843859-7.6630743c0-4.63244206 3.724326-8.38777822 8.3185146-8.38777822s8.3185146 3.75533616 8.3185146 8.38777822v4.4968078h-16.6370292zm30.6843859 59.1065178c-.1762337.1884303-.4219253.2949504-.6787908.2942942h-43.374161c-.25657233 0-.50191785-.1060955-.67860829-.2936818-.17669044-.1875862-.26921538-.4401146-.25591741-.6984756l2.63055198-50.6200032c.0253-.5014039.43566857-.8953355.93357501-.8953355h8.36604891v3.754849c0 .6617774.5320466 1.198254 1.1883593 1.198254.6563126 0 1.1883592-.5364766 1.1883592-1.198254v-3.754849h16.6370291v3.754849c0 .6617774.5320466 1.198254 1.1883592 1.198254.6563127 0 1.1883593-.5364766 1.1883593-1.198254v-3.754849h8.3660489c.4982739 0 .9092069.3935617.9345257.8953355l2.6267492 50.6190446c.0133257.2593307-.0810599.5125423-.2604883.6988218z"/></g></svg>

<?xml version="1.0" encoding="UTF-8"?>
<svg width="50px" height="73px" viewBox="0 0 50 73" version="1.1" xmlns="http://www.w3.org/2000/svg" xmlns:xlink="http://www.w3.org/1999/xlink">
    <!-- Generator: Sketch 57.1 (83088) - https://sketch.com -->
    <title>shopping-bag</title>
    <desc>Created with Sketch.</desc>
    <g id="Page-1" stroke="none" stroke-width="1" fill="none" fill-rule="evenodd">
        <g id="Desktop-HD-Copy-3" transform="translate(-975.000000, -2003.000000)" fill="#458BC9" fill-rule="nonzero">
            <g id="shopping-bag" transform="translate(975.000000, 2003.000000)">
                <path d="M35.9049171,41.0702802 L30.7046062,41.0702802 L30.7046062,35.8692279 C30.7046062,35.2110102 30.1709936,34.6774194 29.5127491,34.6774194 L21.2937025,34.6774194 C20.635458,34.6774194 20.1018454,35.2110102 20.1018454,35.8692279 L20.1018454,41.0702802 L14.9015345,41.0702802 C14.24329,41.0702802 13.7096774,41.6038711 13.7096774,42.2620887 L13.7096774,50.4798468 C13.7096774,51.1380644 14.24329,51.6716553 14.9015345,51.6716553 L20.1018454,51.6716553 L20.1018454,56.8727076 C20.1018454,57.5309253 20.635458,58.0645161 21.2937025,58.0645161 L29.5127491,58.0645161 C30.1709936,58.0645161 30.7046062,57.5309253 30.7046062,56.8727076 L30.7046062,51.6716553 L35.9049171,51.6716553 C36.5631616,51.6716553 37.0967742,51.1380644 37.0967742,50.4798468 L37.0967742,42.2620887 C37.0967742,41.6038711 36.5631616,41.0702802 35.9049171,41.0702802 L35.9049171,41.0702802 Z M34.71306,49.2880383 L29.5127491,49.2880383 C28.8545046,49.2880383 28.320892,49.8216291 28.320892,50.4798468 L28.320892,55.6808991 L22.4855596,55.6808991 L22.4855596,50.4798468 C22.4855596,49.8216291 21.951947,49.2880383 21.2937025,49.2880383 L16.0933916,49.2880383 L16.0933916,43.4538972 L21.2937025,43.4538972 C21.951947,43.4538972 22.4855596,42.9203064 22.4855596,42.2620887 L22.4855596,37.0610364 L28.320892,37.0610364 L28.320892,42.2620887 C28.320892,42.9203064 28.8545046,43.4538972 29.5127491,43.4538972 L34.71306,43.4538972 L34.71306,49.2880383 Z" id="Shape"></path>
                <path d="M47.3658713,18.4473609 C47.2728548,16.6739272 45.8196771,15.2840405 44.0584299,15.2839702 L35.692381,15.2839702 L35.692381,10.7842866 C35.692381,4.82828956 30.903962,0 24.9971479,0 C19.0903338,0 14.3019149,4.82828956 14.3019149,10.7842866 L14.3019149,15.2810944 L5.93586598,15.2810944 C4.17442746,15.2806809 2.72097212,16.6708332 2.62842458,18.4444851 L0.00452741433,69.0664056 C-0.0429370646,69.9813255 0.284430913,70.8757333 0.909977192,71.5402009 C1.53552347,72.2046686 2.40431419,72.5806452 3.3129195,72.5806452 L46.6870805,72.5806452 C47.5956858,72.5806452 48.4644765,72.2046686 49.0900228,71.5402009 C49.7155691,70.8757333 50.0429371,69.9813255 49.9954726,69.0664056 L47.3658713,18.4473609 Z M16.6814854,10.7842866 C16.6814854,6.15184454 20.4058114,2.39650838 25,2.39650838 C29.5941886,2.39650838 33.3185146,6.15184454 33.3185146,10.7842866 L33.3185146,15.2810944 L16.6814854,15.2810944 L16.6814854,10.7842866 Z M47.3658713,69.8908044 C47.1896376,70.0792347 46.943946,70.1857548 46.6870805,70.1850986 L3.3129195,70.1850986 C3.05634717,70.1850986 2.81100165,70.0790031 2.63431121,69.8914168 C2.45762077,69.7038306 2.36509583,69.4513022 2.3783938,69.1929412 L5.00894578,18.572938 C5.03424578,18.0715341 5.44461435,17.6776025 5.94252079,17.6776025 L14.3085697,17.6776025 L14.3085697,21.4324515 C14.3085697,22.0942289 14.8406163,22.6307055 15.496929,22.6307055 C16.1532416,22.6307055 16.6852882,22.0942289 16.6852882,21.4324515 L16.6852882,17.6776025 L33.3223173,17.6776025 L33.3223173,21.4324515 C33.3223173,22.0942289 33.8543639,22.6307055 34.5106765,22.6307055 C35.1669892,22.6307055 35.6990358,22.0942289 35.6990358,21.4324515 L35.6990358,17.6776025 L44.0650847,17.6776025 C44.5633586,17.6776025 44.9742916,18.0711642 44.9996104,18.572938 L47.6263596,69.1919826 C47.6396853,69.4513133 47.5452997,69.7045249 47.3658713,69.8908044 L47.3658713,69.8908044 Z" id="Shape"></path>
            </g>
        </g>
    </g>
</svg>
